images/3235472.svg

<?xml version="1.0" encoding="UTF-8"?>
<svg xmlns="http://www.w3.org/2000/svg" xmlns:xlink="http://www.w3.org/1999/xlink" width="300pt" height="300pt" viewBox="0 0 300 300" version="1.1">
<defs>
<g>
<symbol overflow="visible" id="glyph0-0">
<path style="stroke:none;" d="M 0.453125 1.59375 L 0.453125 -6.34375 L 4.953125 -6.34375 L 4.953125 1.59375 Z M 0.953125 1.09375 L 4.453125 1.09375 L 4.453125 -5.84375 L 0.953125 -5.84375 Z M 0.953125 1.09375 "/>
</symbol>
<symbol overflow="visible" id="glyph0-1">
<path style="stroke:none;" d="M 3.546875 -5.953125 C 2.898438 -5.953125 2.382812 -5.710938 2 -5.234375 C 1.625 -4.753906 1.4375 -4.101562 1.4375 -3.28125 C 1.4375 -2.445312 1.625 -1.789062 2 -1.3125 C 2.382812 -0.832031 2.898438 -0.59375 3.546875 -0.59375 C 4.191406 -0.59375 4.703125 -0.832031 5.078125 -1.3125 C 5.453125 -1.789062 5.640625 -2.445312 5.640625 -3.28125 C 5.640625 -4.101562 5.453125 -4.753906 5.078125 -5.234375 C 4.703125 -5.710938 4.191406 -5.953125 3.546875 -5.953125 Z M 3.546875 -6.6875 C 4.460938 -6.6875 5.195312 -6.375 5.75 -5.75 C 6.300781 -5.132812 6.578125 -4.3125 6.578125 -3.28125 C 6.578125 -2.238281 6.300781 -1.410156 5.75 -0.796875 C 5.195312 -0.179688 4.460938 0.125 3.546875 0.125 C 2.617188 0.125 1.878906 -0.179688 1.328125 -0.796875 C 0.773438 -1.410156 0.5 -2.238281 0.5 -3.28125 C 0.5 -4.3125 0.773438 -5.132812 1.328125 -5.75 C 1.878906 -6.375 2.617188 -6.6875 3.546875 -6.6875 Z M 3.546875 -6.6875 "/>
</symbol>
<symbol overflow="visible" id="glyph0-2">
<path style="stroke:none;" d="M 0.890625 -6.5625 L 2.078125 -6.5625 L 4.984375 -1.078125 L 4.984375 -6.5625 L 5.84375 -6.5625 L 5.84375 0 L 4.65625 0 L 1.75 -5.484375 L 1.75 0 L 0.890625 0 Z M 0.890625 -6.5625 "/>
</symbol>
<symbol overflow="visible" id="glyph0-3">
<path style="stroke:none;" d="M 0.890625 -6.5625 L 1.765625 -6.5625 L 1.765625 -3.875 L 5 -3.875 L 5 -6.5625 L 5.890625 -6.5625 L 5.890625 0 L 5 0 L 5 -3.125 L 1.765625 -3.125 L 1.765625 0 L 0.890625 0 Z M 0.890625 -6.5625 "/>
</symbol>
</g>
</defs>
<g id="surface46153">
<rect x="0" y="0" width="300" height="300" style="fill:rgb(100%,100%,100%);fill-opacity:1;stroke:none;"/>
<path style="fill:none;stroke-width:1.2;stroke-linecap:butt;stroke-linejoin:miter;stroke:rgb(0%,0%,0%);stroke-opacity:1;stroke-miterlimit:10;" d="M 70.804688 80.445312 L 61.023438 88.152344 "/>
<path style="fill:none;stroke-width:1.2;stroke-linecap:butt;stroke-linejoin:miter;stroke:rgb(100%,0%,0%);stroke-opacity:1;stroke-miterlimit:10;" d="M 61.023438 88.152344 L 51.246094 95.859375 "/>
<path style="fill:none;stroke-width:1.2;stroke-linecap:butt;stroke-linejoin:miter;stroke:rgb(100%,0%,0%);stroke-opacity:1;stroke-miterlimit:10;" d="M 51.246094 95.859375 L 53.027344 108.183594 "/>
<path style="fill:none;stroke-width:1.2;stroke-linecap:butt;stroke-linejoin:miter;stroke:rgb(0%,0%,0%);stroke-opacity:1;stroke-miterlimit:10;" d="M 53.027344 108.183594 L 54.8125 120.503906 "/>
<path style=" stroke:none;fill-rule:nonzero;fill:rgb(100%,100%,100%);fill-opacity:1;" d="M 47.246094 90.359375 L 55.246094 90.359375 L 55.246094 101.359375 L 47.246094 101.359375 Z M 47.246094 90.359375 "/>
<g style="fill:rgb(100%,0%,0%);fill-opacity:1;">
  <use xlink:href="#glyph0-1" x="47.246094" y="99.022461"/>
</g>
<path style="fill:none;stroke-width:1.2;stroke-linecap:butt;stroke-linejoin:miter;stroke:rgb(0%,0%,0%);stroke-opacity:1;stroke-miterlimit:10;" d="M 54.8125 120.503906 L 77.941406 129.738281 "/>
<path style="fill:none;stroke-width:1.2;stroke-linecap:butt;stroke-linejoin:miter;stroke:rgb(0%,0%,0%);stroke-opacity:1;stroke-miterlimit:10;" d="M 54.953125 126.871094 L 73.453125 134.257812 "/>
<path style="fill:none;stroke-width:1.2;stroke-linecap:butt;stroke-linejoin:miter;stroke:rgb(0%,0%,0%);stroke-opacity:1;stroke-miterlimit:10;" d="M 35.25 135.917969 L 54.8125 120.503906 "/>
<path style="fill:none;stroke-width:1.2;stroke-linecap:butt;stroke-linejoin:miter;stroke:rgb(0%,0%,0%);stroke-opacity:1;stroke-miterlimit:10;" d="M 77.941406 129.738281 L 81.507812 154.386719 "/>
<path style="fill:none;stroke-width:1.2;stroke-linecap:butt;stroke-linejoin:miter;stroke:rgb(0%,0%,0%);stroke-opacity:1;stroke-miterlimit:10;" d="M 81.507812 154.386719 L 61.945312 169.800781 "/>
<path style="fill:none;stroke-width:1.2;stroke-linecap:butt;stroke-linejoin:miter;stroke:rgb(0%,0%,0%);stroke-opacity:1;stroke-miterlimit:10;" d="M 83.175781 160.53125 L 67.527344 172.859375 "/>
<path style="fill:none;stroke-width:1.2;stroke-linecap:butt;stroke-linejoin:miter;stroke:rgb(0%,0%,0%);stroke-opacity:1;stroke-miterlimit:10;" d="M 102.210938 168.226562 L 81.507812 154.386719 "/>
<path style="fill:none;stroke-width:1.2;stroke-linecap:butt;stroke-linejoin:miter;stroke:rgb(0%,0%,0%);stroke-opacity:1;stroke-miterlimit:10;" d="M 61.945312 169.800781 L 38.816406 160.566406 "/>
<path style="fill:none;stroke-width:1.2;stroke-linecap:butt;stroke-linejoin:miter;stroke:rgb(0%,0%,0%);stroke-opacity:1;stroke-miterlimit:10;" d="M 61.945312 169.800781 L 66.253906 181.484375 "/>
<path style="fill:none;stroke-width:1.2;stroke-linecap:butt;stroke-linejoin:miter;stroke:rgb(0%,0%,100%);stroke-opacity:1;stroke-miterlimit:10;" d="M 66.253906 181.484375 L 70.558594 193.167969 "/>
<path style="fill:none;stroke-width:1.2;stroke-linecap:butt;stroke-linejoin:miter;stroke:rgb(0%,0%,0%);stroke-opacity:1;stroke-miterlimit:10;" d="M 38.816406 160.566406 L 35.25 135.917969 "/>
<path style="fill:none;stroke-width:1.2;stroke-linecap:butt;stroke-linejoin:miter;stroke:rgb(0%,0%,0%);stroke-opacity:1;stroke-miterlimit:10;" d="M 44.257812 157.261719 L 41.40625 137.542969 "/>
<path style="fill:none;stroke-width:1.2;stroke-linecap:butt;stroke-linejoin:miter;stroke:rgb(0%,0%,100%);stroke-opacity:1;stroke-miterlimit:10;" d="M 70.558594 193.167969 L 83 192.679688 "/>
<path style="fill:none;stroke-width:1.2;stroke-linecap:butt;stroke-linejoin:miter;stroke:rgb(0%,0%,0%);stroke-opacity:1;stroke-miterlimit:10;" d="M 83 192.679688 L 95.445312 192.195312 "/>
<path style=" stroke:none;fill-rule:nonzero;fill:rgb(100%,100%,100%);fill-opacity:1;" d="M 63.558594 187.667969 L 77.558594 187.667969 L 77.558594 198.667969 L 63.558594 198.667969 Z M 63.558594 187.667969 "/>
<g style="fill:rgb(0%,0%,100%);fill-opacity:1;">
  <use xlink:href="#glyph0-2" x="63.558594" y="196.331055"/>
  <use xlink:href="#glyph0-3" x="70.536133" y="196.331055"/>
</g>
<path style="fill:none;stroke-width:1.2;stroke-linecap:butt;stroke-linejoin:miter;stroke:rgb(0%,0%,0%);stroke-opacity:1;stroke-miterlimit:10;" d="M 95.445312 192.195312 L 102.210938 168.226562 "/>
<path style="fill:none;stroke-width:1.2;stroke-linecap:butt;stroke-linejoin:miter;stroke:rgb(0%,0%,0%);stroke-opacity:1;stroke-miterlimit:10;" d="M 90.480469 188.207031 L 95.894531 169.03125 "/>
<path style="fill:none;stroke-width:1.2;stroke-linecap:butt;stroke-linejoin:miter;stroke:rgb(0%,0%,0%);stroke-opacity:1;stroke-miterlimit:10;" d="M 102.210938 168.226562 L 125.578125 159.613281 "/>
<path style="fill:none;stroke-width:1.2;stroke-linecap:butt;stroke-linejoin:miter;stroke:rgb(0%,0%,0%);stroke-opacity:1;stroke-miterlimit:10;" d="M 125.578125 159.613281 L 144.71875 175.542969 "/>
<path style="fill:none;stroke-width:1.2;stroke-linecap:butt;stroke-linejoin:miter;stroke:rgb(0%,0%,0%);stroke-opacity:1;stroke-miterlimit:10;" d="M 144.71875 175.542969 L 156.402344 171.238281 "/>
<path style="fill:none;stroke-width:1.2;stroke-linecap:butt;stroke-linejoin:miter;stroke:rgb(0%,0%,100%);stroke-opacity:1;stroke-miterlimit:10;" d="M 156.402344 171.238281 L 168.085938 166.929688 "/>
<path style="fill:none;stroke-width:1.2;stroke-linecap:butt;stroke-linejoin:miter;stroke:rgb(0%,0%,100%);stroke-opacity:1;stroke-miterlimit:10;" d="M 168.085938 166.929688 L 177.660156 174.894531 "/>
<path style="fill:none;stroke-width:1.2;stroke-linecap:butt;stroke-linejoin:miter;stroke:rgb(0%,0%,0%);stroke-opacity:1;stroke-miterlimit:10;" d="M 177.660156 174.894531 L 187.230469 182.859375 "/>
<path style=" stroke:none;fill-rule:nonzero;fill:rgb(100%,100%,100%);fill-opacity:1;" d="M 161.085938 161.429688 L 175.085938 161.429688 L 175.085938 172.429688 L 161.085938 172.429688 Z M 161.085938 161.429688 "/>
<g style="fill:rgb(0%,0%,100%);fill-opacity:1;">
  <use xlink:href="#glyph0-2" x="161.085938" y="170.092773"/>
  <use xlink:href="#glyph0-3" x="168.063477" y="170.092773"/>
</g>
<path style="fill:none;stroke-width:1.2;stroke-linecap:butt;stroke-linejoin:miter;stroke:rgb(0%,0%,0%);stroke-opacity:1;stroke-miterlimit:10;" d="M 187.230469 182.859375 L 185.117188 195.132812 "/>
<path style="fill:none;stroke-width:1.2;stroke-linecap:butt;stroke-linejoin:miter;stroke:rgb(0%,0%,100%);stroke-opacity:1;stroke-miterlimit:10;" d="M 185.117188 195.132812 L 183.007812 207.402344 "/>
<path style="fill:none;stroke-width:1.2;stroke-linecap:butt;stroke-linejoin:miter;stroke:rgb(0%,0%,0%);stroke-opacity:1;stroke-miterlimit:10;" d="M 192.582031 186.308594 L 190.894531 196.125 "/>
<path style="fill:none;stroke-width:1.2;stroke-linecap:butt;stroke-linejoin:miter;stroke:rgb(0%,0%,100%);stroke-opacity:1;stroke-miterlimit:10;" d="M 190.894531 196.125 L 189.203125 205.941406 "/>
<path style="fill:none;stroke-width:1.2;stroke-linecap:butt;stroke-linejoin:miter;stroke:rgb(0%,0%,0%);stroke-opacity:1;stroke-miterlimit:10;" d="M 210.597656 174.246094 L 187.230469 182.859375 "/>
<path style="fill:none;stroke-width:1.2;stroke-linecap:butt;stroke-linejoin:miter;stroke:rgb(0%,0%,100%);stroke-opacity:1;stroke-miterlimit:10;" d="M 183.007812 207.402344 L 192.578125 215.367188 "/>
<path style="fill:none;stroke-width:1.2;stroke-linecap:butt;stroke-linejoin:miter;stroke:rgb(0%,0%,0%);stroke-opacity:1;stroke-miterlimit:10;" d="M 192.578125 215.367188 L 202.148438 223.332031 "/>
<path style=" stroke:none;fill-rule:nonzero;fill:rgb(100%,100%,100%);fill-opacity:1;" d="M 180.007812 201.902344 L 187.007812 201.902344 L 187.007812 212.902344 L 180.007812 212.902344 Z M 180.007812 201.902344 "/>
<g style="fill:rgb(0%,0%,100%);fill-opacity:1;">
  <use xlink:href="#glyph0-2" x="180.007812" y="210.56543"/>
</g>
<path style="fill:none;stroke-width:1.2;stroke-linecap:butt;stroke-linejoin:miter;stroke:rgb(0%,0%,0%);stroke-opacity:1;stroke-miterlimit:10;" d="M 202.148438 223.332031 L 213.832031 219.027344 "/>
<path style="fill:none;stroke-width:1.2;stroke-linecap:butt;stroke-linejoin:miter;stroke:rgb(0%,0%,100%);stroke-opacity:1;stroke-miterlimit:10;" d="M 213.832031 219.027344 L 225.515625 214.71875 "/>
<path style="fill:none;stroke-width:1.2;stroke-linecap:butt;stroke-linejoin:miter;stroke:rgb(0%,0%,0%);stroke-opacity:1;stroke-miterlimit:10;" d="M 202.457031 216.972656 L 211.804688 213.527344 "/>
<path style="fill:none;stroke-width:1.2;stroke-linecap:butt;stroke-linejoin:miter;stroke:rgb(0%,0%,100%);stroke-opacity:1;stroke-miterlimit:10;" d="M 211.804688 213.527344 L 221.152344 210.082031 "/>
<path style="fill:none;stroke-width:1.2;stroke-linecap:butt;stroke-linejoin:miter;stroke:rgb(0%,0%,100%);stroke-opacity:1;stroke-miterlimit:10;" d="M 225.515625 214.71875 L 227.628906 202.449219 "/>
<path style="fill:none;stroke-width:1.2;stroke-linecap:butt;stroke-linejoin:miter;stroke:rgb(0%,0%,0%);stroke-opacity:1;stroke-miterlimit:10;" d="M 227.628906 202.449219 L 229.738281 190.175781 "/>
<path style=" stroke:none;fill-rule:nonzero;fill:rgb(100%,100%,100%);fill-opacity:1;" d="M 222.515625 209.21875 L 229.515625 209.21875 L 229.515625 220.21875 L 222.515625 220.21875 Z M 222.515625 209.21875 "/>
<g style="fill:rgb(0%,0%,100%);fill-opacity:1;">
  <use xlink:href="#glyph0-2" x="222.515625" y="217.881836"/>
</g>
<path style="fill:none;stroke-width:1.2;stroke-linecap:butt;stroke-linejoin:miter;stroke:rgb(0%,0%,0%);stroke-opacity:1;stroke-miterlimit:10;" d="M 229.738281 190.175781 L 210.597656 174.246094 "/>
<path style="fill:none;stroke-width:1.2;stroke-linecap:butt;stroke-linejoin:miter;stroke:rgb(0%,0%,0%);stroke-opacity:1;stroke-miterlimit:10;" d="M 231.574219 184.078125 L 216.257812 171.335938 "/>
<path style="fill:none;stroke-width:1.2;stroke-linecap:butt;stroke-linejoin:miter;stroke:rgb(0%,0%,0%);stroke-opacity:1;stroke-miterlimit:10;" d="M 253.105469 181.5625 L 229.738281 190.175781 "/>
<path style="fill:none;stroke-width:1.2;stroke-linecap:butt;stroke-linejoin:miter;stroke:rgb(0%,0%,0%);stroke-opacity:1;stroke-miterlimit:10;" d="M 210.597656 174.246094 L 214.820312 149.703125 "/>
<path style="fill:none;stroke-width:1.2;stroke-linecap:butt;stroke-linejoin:miter;stroke:rgb(0%,0%,0%);stroke-opacity:1;stroke-miterlimit:10;" d="M 214.820312 149.703125 L 238.1875 141.089844 "/>
<path style="fill:none;stroke-width:1.2;stroke-linecap:butt;stroke-linejoin:miter;stroke:rgb(0%,0%,0%);stroke-opacity:1;stroke-miterlimit:10;" d="M 219.183594 154.339844 L 237.878906 147.449219 "/>
<path style="fill:none;stroke-width:1.2;stroke-linecap:butt;stroke-linejoin:miter;stroke:rgb(0%,0%,0%);stroke-opacity:1;stroke-miterlimit:10;" d="M 238.1875 141.089844 L 257.332031 157.019531 "/>
<path style="fill:none;stroke-width:1.2;stroke-linecap:butt;stroke-linejoin:miter;stroke:rgb(0%,0%,0%);stroke-opacity:1;stroke-miterlimit:10;" d="M 238.1875 141.089844 L 242.410156 116.546875 "/>
<path style="fill:none;stroke-width:1.2;stroke-linecap:butt;stroke-linejoin:miter;stroke:rgb(0%,0%,0%);stroke-opacity:1;stroke-miterlimit:10;" d="M 257.332031 157.019531 L 253.105469 181.5625 "/>
<path style="fill:none;stroke-width:1.2;stroke-linecap:butt;stroke-linejoin:miter;stroke:rgb(0%,0%,0%);stroke-opacity:1;stroke-miterlimit:10;" d="M 251.132812 158.480469 L 247.753906 178.113281 "/>
<path style="fill:none;stroke-width:1.2;stroke-linecap:butt;stroke-linejoin:miter;stroke:rgb(0%,0%,0%);stroke-opacity:1;stroke-miterlimit:10;" d="M 242.410156 116.546875 L 225.039062 98.703125 "/>
<path style="fill:none;stroke-width:1.2;stroke-linecap:butt;stroke-linejoin:miter;stroke:rgb(0%,0%,0%);stroke-opacity:1;stroke-miterlimit:10;" d="M 244.871094 110.675781 L 230.972656 96.398438 "/>
<path style="fill:none;stroke-width:1.2;stroke-linecap:butt;stroke-linejoin:miter;stroke:rgb(0%,0%,0%);stroke-opacity:1;stroke-miterlimit:10;" d="M 264.75 105.539062 L 242.410156 116.546875 "/>
<path style="fill:none;stroke-width:1.2;stroke-linecap:butt;stroke-linejoin:miter;stroke:rgb(0%,0%,0%);stroke-opacity:1;stroke-miterlimit:10;" d="M 225.039062 98.703125 L 230.839844 87.683594 "/>
<path style="fill:none;stroke-width:1.2;stroke-linecap:butt;stroke-linejoin:miter;stroke:rgb(100%,0%,0%);stroke-opacity:1;stroke-miterlimit:10;" d="M 230.839844 87.683594 L 236.640625 76.667969 "/>
<path style="fill:none;stroke-width:1.2;stroke-linecap:butt;stroke-linejoin:miter;stroke:rgb(100%,0%,0%);stroke-opacity:1;stroke-miterlimit:10;" d="M 236.640625 76.667969 L 248.910156 78.777344 "/>
<path style="fill:none;stroke-width:1.2;stroke-linecap:butt;stroke-linejoin:miter;stroke:rgb(0%,0%,0%);stroke-opacity:1;stroke-miterlimit:10;" d="M 248.910156 78.777344 L 261.183594 80.890625 "/>
<path style=" stroke:none;fill-rule:nonzero;fill:rgb(100%,100%,100%);fill-opacity:1;" d="M 232.640625 71.167969 L 240.640625 71.167969 L 240.640625 82.167969 L 232.640625 82.167969 Z M 232.640625 71.167969 "/>
<g style="fill:rgb(100%,0%,0%);fill-opacity:1;">
  <use xlink:href="#glyph0-1" x="232.640625" y="79.831055"/>
</g>
<path style="fill:none;stroke-width:1.2;stroke-linecap:butt;stroke-linejoin:miter;stroke:rgb(0%,0%,0%);stroke-opacity:1;stroke-miterlimit:10;" d="M 261.183594 80.890625 L 264.75 105.539062 "/>
<path style="fill:none;stroke-width:1.2;stroke-linecap:butt;stroke-linejoin:miter;stroke:rgb(0%,0%,0%);stroke-opacity:1;stroke-miterlimit:10;" d="M 255.742188 84.195312 L 258.59375 103.914062 "/>
</g>
</svg>

<svg xmlns="http://www.w3.org/2000/svg" xmlns:xlink="http://www.w3.org/1999/xlink" width="300pt" height="300pt" viewBox="0 0 300 300"><defs><symbol overflow="visible"><path d="M.453 1.594v-7.938h4.5v7.938zm.5-.5h3.5v-6.938h-3.5zm0 0"/></symbol><symbol overflow="visible" id="a"><path d="M3.547-5.953c-.65 0-1.164.242-1.547.72-.375.48-.563 1.13-.563 1.952 0 .835.188 1.49.563 1.967.383.48.898.72 1.547.72.644 0 1.156-.24 1.53-.72.376-.476.564-1.132.564-1.968 0-.822-.187-1.474-.562-1.954-.375-.477-.887-.72-1.53-.72zm0-.734c.914 0 1.648.312 2.203.937.55.617.828 1.438.828 2.47 0 1.042-.277 1.87-.828 2.483-.555.617-1.29.922-2.203.922-.93 0-1.668-.305-2.22-.922C.774-1.41.5-2.237.5-3.28c0-1.033.273-1.853.828-2.47.55-.625 1.29-.938 2.22-.938zm0 0"/></symbol><symbol overflow="visible" id="b"><path d="M.89-6.563H2.08l2.906 5.485v-5.484h.86V0H4.656L1.75-5.484V0H.89zm0 0"/></symbol><symbol overflow="visible" id="c"><path d="M.89-6.563h.876v2.688H5v-2.688h.89V0H5v-3.125H1.766V0H.89zm0 0"/></symbol></defs><g><path fill="#fff" d="M0 0h300v300H0z"/><path d="M70.805 80.445l-9.782 7.707" stroke-width="1.2" stroke="#000" stroke-miterlimit="10" fill="none"/><path d="M61.023 88.152l-9.777 7.707M51.246 95.86l1.78 12.324" stroke-width="1.2" stroke="#f00" stroke-miterlimit="10" fill="none"/><path d="M53.027 108.184l1.785 12.32" stroke-width="1.2" stroke="#000" stroke-miterlimit="10" fill="none"/><path d="M47.246 90.36h8v11h-8zm0 0" fill="#fff"/><use xlink:href="#a" x="47.246" y="99.022" fill="#f00"/><path d="M54.813 120.504l23.128 9.234M54.953 126.87l18.5 7.388M35.25 135.918l19.563-15.414M77.94 129.738l3.568 24.65M81.508 154.387L61.945 169.8M83.176 160.53l-15.65 12.33M102.21 168.227l-20.702-13.84M61.945 169.8l-23.13-9.234M61.945 169.8l4.31 11.684" stroke-width="1.2" stroke="#000" stroke-miterlimit="10" fill="none"/><path d="M66.254 181.484l4.305 11.684" stroke-width="1.2" stroke="#00f" stroke-miterlimit="10" fill="none"/><path d="M38.816 160.566l-3.566-24.648M44.258 157.262l-2.852-19.72" stroke-width="1.2" stroke="#000" stroke-miterlimit="10" fill="none"/><path d="M70.56 193.168L83 192.68" stroke-width="1.2" stroke="#00f" stroke-miterlimit="10" fill="none"/><path d="M83 192.68l12.445-.485" stroke-width="1.2" stroke="#000" stroke-miterlimit="10" fill="none"/><path d="M63.56 187.668h14v11h-14zm0 0" fill="#fff"/><g fill="#00f"><use xlink:href="#b" x="63.559" y="196.331"/><use xlink:href="#c" x="70.536" y="196.331"/></g><path d="M95.445 192.195l6.766-23.968M90.48 188.207l5.415-19.176M102.21 168.227l23.368-8.614M125.578 159.613l19.14 15.93M144.72 175.543l11.682-4.305" stroke-width="1.2" stroke="#000" stroke-miterlimit="10" fill="none"/><path d="M156.402 171.238l11.684-4.308M168.086 166.93l9.574 7.965" stroke-width="1.2" stroke="#00f" stroke-miterlimit="10" fill="none"/><path d="M177.66 174.895l9.57 7.964" stroke-width="1.2" stroke="#000" stroke-miterlimit="10" fill="none"/><path d="M161.086 161.43h14v11h-14zm0 0" fill="#fff"/><g fill="#00f"><use xlink:href="#b" x="161.086" y="170.093"/><use xlink:href="#c" x="168.063" y="170.093"/></g><path d="M187.23 182.86l-2.113 12.273" stroke-width="1.2" stroke="#000" stroke-miterlimit="10" fill="none"/><path d="M185.117 195.133l-2.11 12.27" stroke-width="1.2" stroke="#00f" stroke-miterlimit="10" fill="none"/><path d="M192.582 186.31l-1.687 9.815" stroke-width="1.2" stroke="#000" stroke-miterlimit="10" fill="none"/><path d="M190.895 196.125l-1.692 9.816" stroke-width="1.2" stroke="#00f" stroke-miterlimit="10" fill="none"/><path d="M210.598 174.246l-23.368 8.613" stroke-width="1.2" stroke="#000" stroke-miterlimit="10" fill="none"/><path d="M183.008 207.402l9.57 7.965" stroke-width="1.2" stroke="#00f" stroke-miterlimit="10" fill="none"/><path d="M192.578 215.367l9.57 7.965" stroke-width="1.2" stroke="#000" stroke-miterlimit="10" fill="none"/><path d="M180.008 201.902h7v11h-7zm0 0" fill="#fff"/><use xlink:href="#b" x="180.008" y="210.565" fill="#00f"/><path d="M202.148 223.332l11.684-4.305" stroke-width="1.2" stroke="#000" stroke-miterlimit="10" fill="none"/><path d="M213.832 219.027l11.684-4.308" stroke-width="1.2" stroke="#00f" stroke-miterlimit="10" fill="none"/><path d="M202.457 216.973l9.348-3.446" stroke-width="1.2" stroke="#000" stroke-miterlimit="10" fill="none"/><path d="M211.805 213.527l9.347-3.445M225.516 214.72l2.113-12.27" stroke-width="1.2" stroke="#00f" stroke-miterlimit="10" fill="none"/><path d="M227.63 202.45l2.108-12.274" stroke-width="1.2" stroke="#000" stroke-miterlimit="10" fill="none"/><path d="M222.516 209.22h7v11h-7zm0 0" fill="#fff"/><use xlink:href="#b" x="222.516" y="217.882" fill="#00f"/><path d="M229.738 190.176l-19.14-15.93M231.574 184.078l-15.316-12.742M253.105 181.563l-23.367 8.613M210.598 174.246l4.222-24.543M214.82 149.703l23.368-8.613M219.184 154.34l18.695-6.89M238.188 141.09l19.144 15.93M238.188 141.09l4.222-24.543M257.332 157.02l-4.227 24.542M251.133 158.48l-3.38 19.633M242.41 116.547l-17.37-17.844M244.87 110.676l-13.897-14.278M264.75 105.54l-22.34 11.007M225.04 98.703l5.8-11.02" stroke-width="1.2" stroke="#000" stroke-miterlimit="10" fill="none"/><path d="M230.84 87.684l5.8-11.016M236.64 76.668l12.27 2.11" stroke-width="1.2" stroke="#f00" stroke-miterlimit="10" fill="none"/><path d="M248.91 78.777l12.274 2.114" stroke-width="1.2" stroke="#000" stroke-miterlimit="10" fill="none"/><path d="M232.64 71.168h8v11h-8zm0 0" fill="#fff"/><use xlink:href="#a" x="232.641" y="79.831" fill="#f00"/><path d="M261.184 80.89l3.566 24.65M255.742 84.195l2.852 19.72" stroke-width="1.2" stroke="#000" stroke-miterlimit="10" fill="none"/></g></svg>
